src/components/Icon/assets/people-list.svg

<svg width="24" height="24" viewBox="0 0 24 24" fill="none" xmlns="http://www.w3.org/2000/svg">
<g id="people-list">
<path id="Combined Shape" fill-rule="evenodd" clip-rule="evenodd" d="M5.00018 7.00009C6.10418 7.00009 7.00018 6.10409 7.00018 5.00009C7.00018 3.89609 6.10418 3.00009 5.00018 3.00009C3.89518 3.00009 3.00018 3.89609 3.00018 5.00009C3.00018 6.10409 3.89518 7.00009 5.00018 7.00009ZM3.00018 16.0001H4.00018V21.0001H6.00018V16.0001H7.00018V8.00009H3.00018V16.0001ZM21 6H10V4H21V6ZM10 13H21V11H10V13ZM21 20H10V18H21V20Z" fill="#242428"/>
</g>
</svg>

<svg xmlns="http://www.w3.org/2000/svg" width="24" height="24" fill="none" viewBox="0 0 24 24">
    <path fill="#65676A" fill-rule="evenodd" d="M5 7c1.104 0 2-.896 2-2s-.896-2-2-2c-1.105 0-2 .896-2 2s.895 2 2 2zm-2 9h1v5h2v-5h1V8H3v8zM21 6H10V4h11v2zm-11 7h11v-2H10v2zm11 7H10v-2h11v2z" clip-rule="evenodd"/>
</svg>
